packages/kaspersky-hexa-ui-icons/src/iconsSVGs/28x20/FlagCw.svg

<svg width="28" height="20" viewBox="0 0 28 20" fill="none" xmlns="http://www.w3.org/2000/svg">
<g clip-path="url(#clip0_41916_336)">
<rect width="28" height="20" fill="#002B7F"/>
<rect x="-2.22794" y="12.547" width="33.2471" height="2.6138" fill="#F9E814"/>
<path fill-rule="evenodd" clip-rule="evenodd" d="M7.25809 8.26591L5.71958 9.37966L6.3034 7.57228L4.76873 6.45325L6.66806 6.44998L7.25809 4.64462L7.84812 6.44998L9.74745 6.45325L8.21278 7.57228L8.7966 9.37966L7.25809 8.26591Z" fill="white"/>
<path fill-rule="evenodd" clip-rule="evenodd" d="M3.18254 4.46437L2.23249 5.15212L2.59301 4.03605L1.64533 3.34503L2.81819 3.34301L3.18254 2.22818L3.54689 3.34301L4.71975 3.34503L3.77207 4.03605L4.13258 5.15212L3.18254 4.46437Z" fill="white"/>
</g>
<defs>
<clipPath id="clip0_41916_336">
<rect width="28" height="20" rx="2.38095" fill="white"/>
</clipPath>
</defs>
</svg>

<svg xmlns="http://www.w3.org/2000/svg" width="28" height="20" fill="none" viewBox="0 0 28 20"><g clip-path="url(#a)"><path fill="#002b7f" d="M0 0h28v20H0z"/><path fill="#f9e814" d="M-2.2279 12.547h33.2471v2.6138H-2.2279z"/><path fill="#fff" fill-rule="evenodd" d="M7.258 8.266 5.72 9.38l.584-1.807-1.535-1.119 1.899-.004.59-1.805.59 1.805 1.899.003-1.535 1.119.584 1.808zM3.183 4.464l-.95.688.361-1.116-.948-.691 1.173-.002.364-1.115.364 1.115 1.173.002-.948.691.361 1.116z" clip-rule="evenodd"/></g><defs><clipPath id="a"><rect width="28" height="20" fill="#fff" rx="2"/></clipPath></defs></svg>
